static/img/icons/mail.svg

<svg width="24" height="24" xmlns:xlink="http://www.w3.org/1999/xlink" xmlns="http://www.w3.org/2000/svg"><defs><clipPath id="b"><use xlink:href="#a"/></clipPath><path d="M13 0H3C1.3 0 0 1.3 0 3v6c0 1.7 1.3 3 3 3h10c1.7 0 3-1.3 3-3V3c0-1.7-1.3-3-3-3zm0 2c.1 0 .2 0 .3.1h-.1L8 5.9 2.8 2.1h-.1c.1-.1.2-.1.3-.1h10zm0 8c.6 0 1-.4 1-1V3c0-.1 0-.2-.1-.3 0 .1 0 .2-.1.2l-5.5 4c-.1.1-.2.1-.3.1-.1 0-.2 0-.3-.1l-5.5-4c-.1 0-.2 0-.2-.1V9c0 .6.4 1 1 1h10z" transform="translate(4 6)" id="a"/></defs><path d="M17 6H7C5.3 6 4 7.3 4 9v6c0 1.7 1.3 3 3 3h10c1.7 0 3-1.3 3-3V9c0-1.7-1.3-3-3-3zm0 2c.1 0 .2 0 .3.1h-.1L12 11.9 6.8 8.1h-.1c.1-.1.2-.1.3-.1h10zm0 8c.6 0 1-.4 1-1V9c0-.1 0-.2-.1-.3 0 .1 0 .2-.1.2l-5.5 4c-.1.1-.2.1-.3.1-.1 0-.2 0-.3-.1l-5.5-4c-.1 0-.2 0-.2-.1V15c0 .6.4 1 1 1h10z" fill-rule="evenodd"/><g clip-path="url(#b)"><path d="M0 0h24v24H0V0z" fill="#FFF"/></g></svg>

<?xml version="1.0" encoding="utf-8"?>
<svg width="24px" height="24px" viewBox="0 0 24 24" version="1.1" xmlns:xlink="http://www.w3.org/1999/xlink" xmlns="http://www.w3.org/2000/svg">
  <desc>Created with Lunacy</desc>
  <defs>
    <path d="M13 0L3 0C1.3 0 0 1.3 0 3L0 9C0 10.7 1.3 12 3 12L13 12C14.7 12 16 10.7 16 9L16 3C16 1.3 14.7 0 13 0ZM13 2C13.1 2 13.2 2 13.3 2.1L13.2 2.1L8 5.9L2.8 2.1L2.7 2.1C2.8 2 2.9 2 3 2L13 2ZM13 10C13.6 10 14 9.6 14 9L14 3C14 2.9 14 2.8 13.9 2.7C13.9 2.8 13.9 2.9 13.8 2.9L8.3 6.9C8.2 7 8.1 7 8 7C7.9 7 7.8 7 7.7 6.9L2.2 2.9C2.1 2.9 2 2.9 2 2.8L2 9C2 9.6 2.4 10 3 10L13 10Z" transform="translate(4 6)" id="path_1" />
    <clipPath id="mask_1">
      <use xlink:href="#path_1" />
    </clipPath>
  </defs>
  <g id="Icon-/-Mail">
    <path d="M13 0L3 0C1.3 0 0 1.3 0 3L0 9C0 10.7 1.3 12 3 12L13 12C14.7 12 16 10.7 16 9L16 3C16 1.3 14.7 0 13 0ZM13 2C13.1 2 13.2 2 13.3 2.1L13.2 2.1L8 5.9L2.8 2.1L2.7 2.1C2.8 2 2.9 2 3 2L13 2ZM13 10C13.6 10 14 9.6 14 9L14 3C14 2.9 14 2.8 13.9 2.7C13.9 2.8 13.9 2.9 13.8 2.9L8.3 6.9C8.2 7 8.1 7 8 7C7.9 7 7.8 7 7.7 6.9L2.2 2.9C2.1 2.9 2 2.9 2 2.8L2 9C2 9.6 2.4 10 3 10L13 10Z" transform="translate(4 6)" id="Shape" fill="#000000" fill-rule="evenodd" stroke="none" />
    <g clip-path="url(#mask_1)">
      <g id="Color-/-Black">
        <path d="M0 0L24 0L24 24L0 24L0 0Z" id="Rectangle" fill="#FFFFFF" stroke="none" />
      </g>
    </g>
  </g>
</svg>
